X:1
T:HIGH GERMANY
T:Folk Songs from Somerset
T:Pubblico dominio Scritto con MuseScore, un software libero e gratuito: http://musescore.org/it 
T:Pubblico dominio Scritto con MuseScore, un software libero e gratuito: http://musescore.org/it 
T:Pubblico dominio Scritto con MuseScore, un software libero e gratuito: http://musescore.org/it 
Z:Pubblico dominio
Z:Scritto con MuseScore, un software libero e gratuito: http://musescore.org/it
%%score 1 { ( 2 4 ) | ( 3 5 ) }
L:1/8
Q:1/4=120
M:4/4
K:F
V:1 treble nm="Flauto"
V:2 treble nm="Pianoforte"
V:4 treble 
V:3 bass 
V:5 bass 
V:1
"^Alla marcia" z2 | z8 | z8 | z8 | z6 |]!mf! A2 | A3 D D2 C2 | (F3 G) A2 A2 | G2 G2 D2 D2 | %9
w: |||||O|Pol\- ly, Love, O|Pol- * ly, the|rout has now be\-|
 D6 (DE) | F2 F2 FG AB | c4 d2 d2 | c2 A2 (GA) B2 | A6"^cres." (AG) | F2 F2 F2 (AB) | c2 c2 d2 d2 | %16
w: gun And *|we must march * a- *|way at the|beat\- ing of * the|drum. Go *|dress your\- self all *|in your best and|
!f! c3 A (AG) F2 | G6 d2 | c3 D D2 C2 | F3 G A2 A2 | (G3 F) D2 D2 | D6 z2 | z8 | z6!D.S.! |] %24
w: come a\- long * with|me, I'll|take you to the|cru\- el wars in|High * Ger\- man\-|ie.|||
V:2
!f! .[Ed]2 | !>![A,A]4 z2 [Dd]2 | !>![B,B]4 z2 [Dd]2 | !>![A,A]4 z2 !>![E,B,D]2 | %4
 !fermata![F,A,D]6 |] [A,A]2 | (A3 D) D2 .[Cc]2 | (F3 G A2) .A2 | !>!G4- G4 | F2 D4 ((DE) | %10
 F2 E2 DEFG) | [DA]4 B2 d2 | ((!>![CFc]2 [DFA]2)) B4 | ([FA]6 A)G | %14
 !>![A,F]2 !>![EF]2 !>![DF]2 (AB) | [Ac]4 [Ad]4 | [Ece]2 [A,EA]2 [DBd]2 [A,FA]2 | %17
 !>![Cc]6 !>![DFBd]2 | !>![CFAc]3 [B,D] [B,D]2 [G,C]2 | F3 G A2 A2 | !>!G3 F D2 D2 | [F,A,D]6 z2 | %22
 !>!D6 .[E,B,D]2 | !fermata![F,A,D]6 |] %24
V:3
 z2 | z2 [D,,D,]2 !>![A,,,A,,]4 | z2 [G,,,G,,]2 !>![E,,,E,,]4 | %3
 z2 ([F,,,F,,]>[G,,,G,,] [A,,,A,,]2) !>!.[G,,,G,,]2 | !>!!fermata![D,,,D,,]6 |]!mf! z2 | %6
 z2 [D,F,]4 .[E,G,]2 | ([D,A,]2 ([C,C]2 [F,C]2)) z2 | z2 (G,,A,, B,,2) (G,,2 | D,2) (G,2 F,2 E,2) | %10
"^marc." D,2 C,2 B,,2 A,,G,, | (F,,4 B,,2) z2 | z (A,,D,F,) (G,2 C,2) | %13
 F,2 !>![E,,E,]2 !>![D,,D,]2"^cres." !>![C,,C,]2 | %14
 [D,,D,]2 [C,,B,,]2 ([B,,,B,,][A,,,A,,] [G,,,G,,]2) | %15
 [F,,,F,,]2 [F,,F,][E,,E,] [D,,D,][E,,E,] [F,,F,]2 |!f! [A,,,A,,]2 [C,,C,]2 [B,,,B,,]2 [D,,D,]2 | %17
 !>![C,,C,]6 !>![B,,,B,,]2 | !>![F,,F,]3 [B,,F,] [B,,F,]2 [C,E,]2 | [D,A,]2 [E,G,]2 F,2 z2 | %20
 z2 B,2 .[D,F,]2 .[D,G,]2 | D,2!f! .[D,,D,].[C,,C,] .[B,,,B,,].[A,,,A,,] .[G,,,G,,]2 | [D,A,]6 x2 | %23
 !>![D,,,D,,]6 |] %24
V:4
 x2 | x8 | x8 | x8 | x6 |] x2 | A,6 x2 | F2 E2 F2 A,2 | G,2 (B,C D2) B,2 | A,2 B,2 A,2 G,2 | %10
 F,2 G,A, B,2 C2 | F2 _E2 [DF]2 D2 | x4 ([DF]2 [CE]2) | x8 | x6 [CE]2 | C4 (F2 D2) | x8 | %17
 (F2 ED E2) x2 | x8 | x8 | x8 | x8 | x8 | x6 |] %24
V:5
 x2 | x8 | x8 | x8 | x6 |] x2 | x8 | x8 | x8 | x8 | x8 | x8 | x8 | x8 | x8 | x8 | x8 | x8 | x8 | %19
 x8 | x8 | x8 | ([F,,,F,,]3 [G,,,G,,] [A,,,A,,]2) .[G,,,G,,]2 | x6 |] %24

